img/icon-barf/meat.svg

<svg width="20" height="14" viewBox="0 0 20 14" fill="none" xmlns="http://www.w3.org/2000/svg">
<path d="M18.2951 2.43524C17.378 1.78163 16.0964 1.25452 14.4738 0.853916C11.3463 0.0843373 7.81893 0 6.44327 0C2.89242 0 0 2.59337 0 5.77711V8.22289C0 11.4066 2.89242 14 6.44327 14C8.0776 14 9.31217 13.5361 10.6173 13.0512C11.9694 12.5452 13.3568 12.0286 15.3204 12.0286C17.9071 12.0286 20 10.1416 20 7.83283V5.38705C20 4.23795 19.4239 3.24699 18.2951 2.43524ZM17.9659 8.42319C18.1188 8.56024 18.3657 8.57078 18.5185 8.43373C18.7889 8.21235 19.0123 7.95934 19.2122 7.69578V7.83283C19.2122 9.76205 17.4603 11.3328 15.3086 11.3328C13.1922 11.3328 11.7225 11.881 10.3116 12.4081C9.08877 12.872 7.92475 13.3042 6.44327 13.3042C3.44503 13.3042 0.975897 11.2063 0.787772 8.5497C1.88125 10.3419 4.00941 11.5542 6.44327 11.5542C8.0776 11.5542 9.31217 11.0904 10.6173 10.6054C11.9694 10.0994 13.3568 9.58283 15.3204 9.58283C15.4615 9.58283 15.6143 9.57229 15.7554 9.56175C15.9671 9.54066 16.1317 9.37199 16.1082 9.18223C16.0847 8.99247 15.8965 8.84488 15.6849 8.86596C15.5673 8.87651 15.438 8.87651 15.3204 8.87651C13.204 8.87651 11.7343 9.4247 10.3233 9.95181C9.08877 10.4262 7.92475 10.8584 6.44327 10.8584C3.3157 10.8584 0.776014 8.58133 0.776014 5.77711C0.776014 2.97289 3.3157 0.695783 6.44327 0.695783C7.78366 0.695783 11.2287 0.780121 14.2622 1.52861C17.5426 2.34036 19.2122 3.63705 19.2122 5.38705C19.2122 6.34639 18.7654 7.2741 17.9777 7.92771C17.8248 8.06476 17.8248 8.28614 17.9659 8.42319Z" fill="#961914"/>
<path d="M17.6484 8.64452C17.5544 8.46531 17.3192 8.39151 17.1311 8.47585H17.1193C16.9312 8.56019 16.8489 8.77103 16.943 8.95025C17.0135 9.07676 17.1546 9.14001 17.2957 9.14001C17.3545 9.14001 17.4133 9.12947 17.4721 9.10838C17.6602 9.02404 17.7425 8.82374 17.6484 8.64452Z" fill="#961914"/>
<path d="M9.26512 1.49691H9.2416C9.02996 1.48636 8.84184 1.62341 8.81832 1.82371C8.80656 2.01347 8.95942 2.18215 9.17106 2.20323H9.19457C9.20633 2.20323 9.21809 2.20323 9.22985 2.20323C9.42973 2.20323 9.6061 2.06618 9.61785 1.87642C9.64137 1.68667 9.47676 1.51799 9.26512 1.49691Z" fill="#961914"/>
<path d="M18.1893 4.44879C17.8013 3.753 16.943 3.16264 15.6261 2.6777C14.5679 2.28764 13.4039 2.03463 12.6161 1.89758C12.1458 1.81324 11.652 1.73945 11.1464 1.6762C10.9347 1.65511 10.7349 1.79216 10.7113 1.98192C10.6761 2.17168 10.8289 2.35089 11.0406 2.37198C11.5344 2.43523 12.0047 2.50903 12.4633 2.58282C15.144 3.05722 16.9782 3.84788 17.4956 4.75451C17.6014 4.94427 17.6602 5.15511 17.6602 5.38704C17.6602 6.54668 16.6138 7.48493 15.3204 7.48493C14.0153 7.48493 12.7572 7.67469 11.4521 8.06475C10.8877 8.23342 10.3469 8.43372 9.81775 8.63403C9.46502 8.76053 9.11228 8.89758 8.74779 9.01354C7.8542 9.32981 7.16049 9.45632 6.44326 9.45632C4.18577 9.45632 2.3398 7.81174 2.3398 5.7771C2.3398 3.753 4.17401 2.09788 6.44326 2.09788C6.89006 2.09788 7.33686 2.10842 7.77189 2.11897C7.84244 2.11897 7.92475 2.11897 7.99529 2.12951C8.21869 2.14005 8.39506 1.99246 8.40682 1.79216C8.41857 1.6024 8.25396 1.43373 8.03057 1.42318C7.94826 1.42318 7.87771 1.41264 7.79541 1.41264C7.34861 1.41264 6.89006 1.4021 6.44326 1.4021C3.75073 1.4021 1.56378 3.36294 1.56378 5.7771C1.56378 8.19126 3.75073 10.1521 6.44326 10.1521C7.26631 10.1521 8.03057 10.0045 9.02998 9.66716C9.39447 9.5512 9.75896 9.41415 10.1117 9.2771C10.629 9.08734 11.1581 8.88704 11.6872 8.72891C12.91 8.35993 14.0858 8.18071 15.3086 8.18071C17.0253 8.18071 18.4244 6.9262 18.4244 5.38704C18.4362 5.03915 18.3539 4.73342 18.1893 4.44879Z" fill="#961914"/>
<path d="M6.81955 2.7937C5.72607 2.7937 4.84424 3.52111 4.84424 4.40665C4.84424 5.29219 5.72607 6.00906 6.81955 6.00906C7.91302 6.00906 8.79486 5.28165 8.79486 4.39611C8.79486 3.51057 7.91302 2.7937 6.81955 2.7937ZM6.81955 5.31328C6.16111 5.31328 5.62025 4.90213 5.62025 4.40665C5.62025 3.90063 6.16111 3.50003 6.81955 3.50003C7.47798 3.50003 8.01884 3.90063 8.01884 4.40665C8.01884 4.91268 7.47798 5.31328 6.81955 5.31328Z" fill="#961914"/>
</svg>

<svg width="20" height="14" fill="none" xmlns="http://www.w3.org/2000/svg"><path d="M18.295 2.435c-.917-.653-2.199-1.18-3.821-1.581C11.346.084 7.819 0 6.444 0 2.891 0 0 2.593 0 5.777v2.446C0 11.407 2.892 14 6.443 14c1.635 0 2.87-.464 4.174-.949 1.352-.506 2.74-1.022 4.703-1.022 2.587 0 4.68-1.887 4.68-4.196V5.387c0-1.149-.576-2.14-1.705-2.952zm-.33 5.988c.154.137.4.148.553.01.27-.22.494-.474.694-.737v.137c0 1.93-1.752 3.5-3.903 3.5-2.117 0-3.586.548-4.997 1.075-1.223.464-2.387.896-3.869.896-2.998 0-5.467-2.098-5.655-4.754 1.093 1.792 3.221 3.004 5.655 3.004 1.635 0 2.87-.464 4.174-.949 1.352-.506 2.74-1.022 4.703-1.022.141 0 .294-.01.435-.021.212-.021.377-.19.353-.38-.023-.19-.212-.337-.423-.316-.118.01-.247.01-.365.01-2.116 0-3.586.549-4.997 1.076-1.234.474-2.398.906-3.88.906-3.127 0-5.667-2.277-5.667-5.08 0-2.805 2.54-5.082 5.667-5.082 1.34 0 4.786.084 7.82.833 3.28.811 4.95 2.108 4.95 3.858 0 .96-.448 1.887-1.235 2.54a.334.334 0 00-.012.496z" fill="#961914"/><path d="M17.648 8.645a.405.405 0 00-.517-.17h-.012c-.188.085-.27.296-.176.475.07.127.212.19.353.19a.52.52 0 00.176-.032c.188-.084.27-.284.176-.463zM9.265 1.497h-.023c-.212-.01-.4.126-.424.327-.011.19.141.358.353.38h.059c.2 0 .376-.138.388-.328.023-.19-.141-.358-.353-.38z" fill="#961914"/><path d="M18.19 4.449c-.389-.696-1.247-1.286-2.564-1.771-1.058-.39-2.222-.643-3.01-.78-.47-.085-.964-.159-1.47-.222-.211-.02-.411.116-.435.306-.035.19.118.369.33.39.493.063.964.137 1.422.21 2.681.475 4.515 1.266 5.033 2.173.105.19.164.4.164.632 0 1.16-1.046 2.098-2.34 2.098-1.305 0-2.563.19-3.868.58-.564.168-1.105.369-1.634.569-.353.127-.706.264-1.07.38-.894.316-1.588.442-2.305.442-2.257 0-4.103-1.644-4.103-3.679 0-2.024 1.834-3.68 4.103-3.68.447 0 .894.011 1.329.022.07 0 .153 0 .223.01.224.011.4-.137.412-.337.012-.19-.153-.358-.376-.369-.083 0-.153-.01-.236-.01-.446 0-.905-.01-1.352-.01-2.692 0-4.88 1.96-4.88 4.374 0 2.414 2.188 4.375 4.88 4.375.823 0 1.588-.147 2.587-.485a18.78 18.78 0 001.082-.39c.517-.19 1.046-.39 1.575-.548a12.324 12.324 0 013.622-.548c1.716 0 3.115-1.255 3.115-2.794a1.707 1.707 0 00-.235-.938z" fill="#961914"/><path d="M6.82 2.794c-1.094 0-1.976.727-1.976 1.613 0 .885.882 1.602 1.976 1.602 1.093 0 1.975-.727 1.975-1.613 0-.885-.882-1.602-1.975-1.602zm0 2.52c-.659 0-1.2-.412-1.2-.907 0-.506.541-.907 1.2-.907.658 0 1.199.4 1.199.907 0 .506-.541.906-1.2.906z" fill="#961914"/></svg>
